!!!!SEGMENT: pl-sa--96-a-ii-36--001_hasse-johann-adolf-o-mater-intercede.krn
!!!id: 17xx:385
!!!COM: Hasse, Johann Adolf
!!!OTL: O mater intercede
!!!PDT:
!!!SMS-siglum: PL-SA
!!!SMS-shelfmark: 96/A II 36
!!!NIFC-rismID: 1001041277
!!!URL-scan: http://bc.bdsandomierz.pl/dlibra/publication/1374/edition/1342/content
!!!ONB-nifc:
!!!SMS-variant:
!!!SMS-altvar:
**kern	**dynam	**kern	**dynam	**kern	**dynam	**kern	**dynam	**kern	**text	**text
*part5	*part5	*part4	*part4	*part3	*part3	*part2	*part2	*part1	*part1	*part1
*staff5	*	*staff4	*	*staff3	*	*staff2	*	*staff1	*staff1	*staff1
*I"Organo	*	*I"Alto Viola	*	*I"Violino 2do	*	*I"Violino 1mo	*	*I"Canto Solo	*	*
*I'org	*	*I'a-vla	*	*I'vl 2	*	*I'vl 1	*	*I'S solo	*	*
*clefF4	*	*clefC3	*	*clefG2	*	*clefG2	*	*clefC1	*	*
*k[f#c#g#]	*	*k[f#c#g#]	*	*k[f#c#g#]	*	*k[f#c#g#]	*	*k[f#c#g#]	*	*
*A:	*	*A:	*	*A:	*	*A:	*	*A:	*	*
*M3/8	*	*M3/8	*	*M3/8	*	*M3/8	*	*M3/8	*	*
=1	=1	=1	=1	=1	=1	=1	=1	=1	=1	=1
!LO:TX:a:t=P:problem:nazwa instrumentu wzięta z Arii 2da	!	!LO:TX:a:t=P:problem:nazwa instrumentu wzięta z Arii 2da	!	!LO:TX:a:t=P:problem:nazwa instrumentu wzięta z Arii 2da	!	!	!	!	!	!
!	!	!	!	!LO:TX:a:t=P:problem:8\right:global	!	!LO:TX:a:t=P:problem:8\right:global	!	!LO:TX:a:t=P:problem:znaki przykluczowe: cc#, g#, f#	!	!
!	!	!LO:TX:a:t=P:problem:5 krzyżyków przez 7 systemów: c#, f#, g# + duplikowane F#, G#	!	!LO:TX:a:t=P:problem:5 krzyżyków w pierwszym systemie: ff#, cc#, gg# + duplikowane f#, g#	!	!LO:TX:a:t=P:problem:5 krzyżyków w pierwszym systemie:gg#, cc#, ff# + duplikowane f#, g#	!	!	!	!
!LO:TX:a:t=P:problem:5 krzyżyków: F#, C#, G# + duplikowane: FF#, GG#	!	!LO:TX:i:a:t=Allo non Presto.	!	!LO:TX:i:a:t=Allo non Presto	!	!LO:TX:i:a:t=Allo non tanto.	!	!LO:TX:i:a:t=Allo non tanto.	!	!
!LO:TX:a:t=P:problem: napis "Aria 1mo" na pięciolinii przed kluczem	!	!LO:TX:a:t=P:problem: napis "Aria 1mo" na pięciolinii przed kluczem	!	!	!	!	!	!LO:TX:a:t=P:problem: napis "Aria 1ma" na pięciolinii przed kluczem	!	!
!LO:TX:i:a:t=Aria 1mo	!	!	!	!	!	!	!	!	!	!
!LO:TX:i:a:t=Allo non Molto	!	!LO:TX:i:a:t=Aria 1mo	!	!LO:TX:i:a:t=Aria 1ma	!	!LO:TX:i:a:t=Aria 1ma	!	!LO:TX:a:i:t=Aria 1ma	!	!
!	!	!	!	!	!	!	!	!LO:N:vis=00	!	!
4AA/	.	4A/	.	(>8a\L	.	(>8a\L	.	1.r	.	.
.	.	.	.	8cc#\)	.	8cc#\)	.	.	.	.
!	!	!	!	!LO:TX:a:t=|:problem	!	!LO:TX:a:t=|:problem	!	!	!	!
8r	.	8r	.	8ee\J	.	8ee\J	.	.	.	.
=2	=2	=2	=2	=2	=2	=2	=2	=2	=2	=2
4C#/	.	4c#/	.	8ee\L	.	8ee\L	.	.	.	.
.	.	.	.	8aa\	.	8aa\	.	.	.	.
8r	.	8r	.	8ee\J	.	[>8ee\J	.	.	.	.
=3	=3	=3	=3	=3	=3	=3	=3	=3	=3	=3
!	!	!LO:TX:a:t=P:problem:4\right:global	!	!LO:TX:t=P:problem:mixed beam	!	!LO:TX:t=P:problem:mixed beam	!	!	!	!
4D/	.	4d\	.	8ee\L	.	8ee\L]	.	.	.	.
.	.	.	.	8ff#\	.	8ff#\	.	.	.	.
!	!	!LO:TX:a:t=P:problem:8\right:global	!	!	!	!	!	!	!	!
8D#X/	.	8d#X\	.	8a/J	.	8a/J	.	.	.	.
=4	=4	=4	=4	=4	=4	=4	=4	=4	=4	=4
!LO:TX:a:t=P:problem:8\right:global	!	!	!	!	!	!	!	!	!	!
.	.	.	.	8qqa/	.	8qqa/	.	.	.	.
8E\L	.	4e\	.	4g#/	.	4g#/	.	.	.	.
8Dn\	.	.	.	.	.	.	.	.	.	.
8C#\J	.	8e\	.	8a/	.	8a/	.	.	.	.
=5	=5	=5	=5	=5	=5	=5	=5	=5	=5	=5
*	*	*	*	*Xtuplet	*	*Xtuplet	*	*	*	*
!LO:TX:t=P:problem:mixed beam	!	!	!	!LO:TX:a:t=P:problem:16\right:global	!	!LO:TX:a:t=P:problem:16\right:global	!	!	!	!
!	!	!	!	!	!	!	!	!LO:N:vis=00	!	!
8D/L	.	4f#\	.	24b\LL	.	24b\LL	.	1.r	.	.
.	.	.	.	24cc#\	.	24cc#\	.	.	.	.
.	.	.	.	24dd\JJ	.	24dd\JJ	.	.	.	.
!	!	!	!	!LO:TX:a:t=P:problem:4\right:global	!	!LO:TX:a:t=P:problem:4\right:global	!	!	!	!
.	.	.	.	8qqcc#/	.	8qqcc#/	.	.	.	.
8E/	.	.	.	4b\	.	4b\	.	.	.	.
.	.	8qqf#/	.	.	.	.	.	.	.	.
8EE/J	.	8g#\	.	.	.	.	.	.	.	.
=6	=6	=6	=6	=6	=6	=6	=6	=6	=6	=6
8AA/L	.	4a\	.	8cc#\L	.	8cc#\L	.	.	.	.
8BB/	.	.	.	8dd\	.	8dd\	.	.	.	.
8C#/J	.	[<8a\	.	8ee\J	.	8ee\J	.	.	.	.
=7	=7	=7	=7	=7	=7	=7	=7	=7	=7	=7
4D/	.	8a\L]	.	24ff#\LL	.	24ff#\LL	.	.	.	.
.	.	.	.	24gg#\	.	24gg#\	.	.	.	.
.	.	.	.	24aa\JJ	.	24aa\JJ	.	.	.	.
.	.	8b\	.	8dd\L	.	8dd\L	.	.	.	.
8D#X/	.	8a\J	.	8cc#\J	.	8cc#\J	.	.	.	.
=8	=8	=8	=8	=8	=8	=8	=8	=8	=8	=8
8E\L	.	8a\L	.	8cc#\L	.	8cc#\L	.	.	.	.
8E\	.	8g#\J	.	8b\J	.	8b\J	.	.	.	.
8Dn\J	.	8r	.	8r	.	8r	.	.	.	.
!LO:LB:g=original	!	!	!	!	!	!	!	!	!	!
=9	=9	=9	=9	=9	=9	=9	=9	=9	=9	=9
!	!	!	!	!LO:TX:t=P:problem:mixed beam	!	!LO:TX:t=P:problem:mixed beam	!	!	!	!
!	!	!	!	!	!	!	!	!LO:N:vis=00	!	!
8r	.	8r	.	8ee\L	.	8ee\L	.	1.r	.	.
!	!	!	!	!	!	!LO:TUP:b:problem:klamra łukowa	!	!	!	!
8C#/L	.	8c#\L	.	24e/L	.	24e/L	.	.	.	.
.	.	.	.	24f#/	.	24f#/	.	.	.	.
.	.	.	.	24gn/J	.	24gn/J	.	.	.	.
8D/J	.	8d\J	.	8f#/J	.	8f#/J	.	.	.	.
!	!	!LO:LB:g=original	!	!	!	!	!	!	!	!
=10	=10	=10	=10	=10	=10	=10	=10	=10	=10	=10
!	!	!	!	!LO:TX:t=P:problem:mixed beam	!	!LO:TX:t=P:problem:mixed beam	!	!	!	!
8r	.	8r	.	8ee\L	.	8ee\L	.	.	.	.
!	!	!	!	!	!	!LO:TUP:b:problem:klamra łukowa	!	!	!	!
8D/L	.	8d\L	.	24f#/L	.	24f#/L	.	.	.	.
.	.	.	.	24g#X/	.	24g#X/	.	.	.	.
.	.	.	.	24a/J	.	24a/J	.	.	.	.
8E/J	.	8e\J	.	8g#/J	.	8g#/J	.	.	.	.
!	!	!	!	!LO:LB:g=original	!	!	!	!	!	!
=11	=11	=11	=11	=11	=11	=11	=11	=11	=11	=11
!	!	!	!	!LO:TX:t=P:problem:mixed beam	!	!LO:TX:t=P:problem:mixed beam	!	!	!	!
8r	.	8r	.	8ee\L	.	8ee\L	.	.	.	.
!	!	!	!	!	!	!LO:TUP:b:problem:klamra łukowa	!	!	!	!
8E\L	.	8e\L	.	24g#/L	.	24g#/L	.	.	.	.
.	.	.	.	24a/	.	24a/	.	.	.	.
.	.	.	.	24b/J	.	24b/J	.	.	.	.
8F#\J	.	8f#\J	.	8a/J	.	8a/J	.	.	.	.
!	!	!	!	!	!	!LO:LB:g=original	!	!	!	!
=12	=12	=12	=12	=12	=12	=12	=12	=12	=12	=12
!	!	!	!	!	!	!LO:TX:t=P:problem:mixed beam	!	!	!	!
8r	.	8r	.	8ee\L	.	8ee\L	.	.	.	.
!	!	!	!	!	!	!LO:TUP:b:problem:klamra łukowa	!	!	!	!
8F#\L	.	8f#\L	.	24a\L	.	24a/L	.	.	.	.
.	.	.	.	24b\	.	24b/	.	.	.	.
.	.	.	.	24cc#\J	.	24cc#/J	.	.	.	.
8G#\J	.	8g#\J	.	8b\J	.	8b/J	.	.	.	.
=13	=13	=13	=13	=13	=13	=13	=13	=13	=13	=13
!	!	!	!	!	!	!LO:TX:t=P:problem:mixed beam	!	!	!	!
!	!	!	!	!	!	!	!	!LO:N:vis=00	!	!
8r	.	8r	.	8bb\L	.	8bb\L	.	1.r	.	.
!	!	!	!	!	!	!LO:TUP:b:problem:klamra łukowa	!	!	!	!
8G#\L	.	8g#\L	.	24b\L	.	24b/L	.	.	.	.
.	.	.	.	24cc#\	.	24cc#/	.	.	.	.
.	.	.	.	24dd\J	.	24dd/J	.	.	.	.
8A\J	.	8a\J	.	8cc#\J	.	8cc#/J	.	.	.	.
=14	=14	=14	=14	=14	=14	=14	=14	=14	=14	=14
8r	.	8r	.	8aa\L	.	8aa\L	.	.	.	.
8D#X\L	.	8a\L	.	8ccn\	.	8ccn\	.	.	.	.
8E\J	.	8g#\J	.	8b\J	.	8b\J	.	.	.	.
=15	=15	=15	=15	=15	=15	=15	=15	=15	=15	=15
!	!	!	!	!LO:TX:t=P:problem:mixed beam	!	!LO:TX:t=P:problem:mixed beam	!	!	!	!
8r	.	8r	.	8ff#\L	.	8ff#\L	.	.	.	.
8Dn/L	.	8d\L	.	24g#X/L	.	24g#X/L	.	.	.	.
.	.	.	.	24a/	.	24a/	.	.	.	.
.	.	.	.	24b/J	.	24b/J	.	.	.	.
8C#/J	.	8e\J	.	8a/J	.	8a/J	.	.	.	.
=16	=16	=16	=16	=16	=16	=16	=16	=16	=16	=16
!	!	!	!	!LO:TX:t=P:problem:mixed beam	!	!LO:TX:t=P:problem:mixed beam	!	!	!	!
8r	.	8r	.	8d/L	.	8d/L	.	.	.	.
8BB/L	.	8g#\L	.	8dd\	.	8dd\	.	.	.	.
8AA/J	.	8a\J	.	8cc#X\J	.	8cc#X\J	.	.	.	.
=17	=17	=17	=17	=17	=17	=17	=17	=17	=17	=17
!	!	!	!	!	!	!	!	!LO:N:vis=0	!	!
8BB/L	.	8f#\	.	16.b\LL	.	16.b\LL	.	2.r	.	.
!	!	!	!	!LO:TX:a:t=P:problem:32\right:global	!	!LO:TX:a:t=P:problem:32\right:global	!	!	!	!
.	.	.	.	32cc#\JJk	.	32cc#\JJk	.	.	.	.
.	.	8qqc#/	.	8qqa/	.	8qqa/	.	.	.	.
8E/	.	4B/	.	4g#/	.	4g#/	.	.	.	.
8EE/J	.	.	.	.	.	.	.	.	.	.
!LO:TX:a:t=P:problem:podwójny znak segno za kreską taktową	!	!	!	!	!	!	!	!	!	!
!LO:LB:g=original	!	!	!	!	!	!	!	!	!	!
=18	=18	=18	=18	=18	=18	=18	=18	=18	=18	=18
!LO:TX:a:t=P:problem:brak taktu w źródle	!	!	!	!	!	!	!	!	!	!
4.ryy	.	4c#/	.	8a/L	.	8a/L	.	.	.	.
.	.	.	.	8A/J	.	8A/J	.	.	.	.
.	.	8r	.	8r	.	8r	.	.	.	.
!	!	!LO:TX:a:t=P:problem:wężowata linia za kreską taktową.	!	!LO:TX:a:t=P:problem:wężowata linia za kreską taktową	!	!LO:TX:a:t=P:problem:wężowata linia za kreską taktową.	!	!	!	!
=19	=19	=19	=19	=19	=19	=19	=19	=19	=19	=19
!LO:TX:a:t=P:problem:4\right:global	!	!	!	!	!	!	!	!LO:TX:b:t=P:problem:dywiz jako przedłużenie sylaby	!	!
!	!LO:DY:b	!	!	!	!	!	!LO:HP:a:i:t=piano	!	!	!
!	!LO:HP:i:b:t=Piano	!	!	!	!	!	!LO:DY:a	!	!	!
4A\	p	4A/	.	8a/L	.	8a\L	p	8a\L	O-	La-
!	!	!	!	!	!LO:HP:a:i:t=p:	!	!	!	!	!
!	!	!	!	!	!LO:DY:b	!	!	!	!	!
.	.	.	.	8cc#/	p	8cc#\	.	(>8cc#\J	.	.
8r	.	8r	.	8ee/J	.	8ee\J	.	8ee\)	.	-dol-
!	!	!LO:LB:g=original	!	!	!	!	!	!	!	!
=20	=20	=20	=20	=20	=20	=20	=20	=20	=20	=20
4C#/	.	4c#/	.	8ee\L	.	8ee\L	.	8ee\L	-Ma-	-ciſ-
.	.	.	.	8aa\	.	8aa\	.	8aa\J	.	.
8r	.	8r	.	8ee\J	.	[>8ee\J	.	8ee\	-ter	-si-
!	!	!	!	!LO:LB:g=original	!	!	!	!	!	!
=21	=21	=21	=21	=21	=21	=21	=21	=21	=21	=21
!	!	!	!	!LO:TX:t=P:problem:mixed beam	!	!LO:TX:t=P:problem:mixed beam	!	!	!	!
4D/	.	4d\	.	8ee\L	.	8ee\L]	.	8ee\L	in-	-ma
.	.	.	.	8ff#\	.	8ff#\	.	(>8ff#\J	.	.
8D#X/	.	8d#X\	.	8a/J	.	8a/J	.	8a\)	-ter-	la
=22	=22	=22	=22	=22	=22	=22	=22	=22	=22	=22
.	.	.	.	8qqa/	.	8qqa/	.	8qqa/	.	.
8E\L	.	4e\	.	4g#/	.	4g#/	.	4g#\	-ce-	et
8Dn\	.	.	.	.	.	.	.	.	.	.
8C#\J	.	8e\	.	8a/	.	8a/	.	8a\	-de	ta
=23	=23	=23	=23	=23	=23	=23	=23	=23	=23	=23
8BB/L	.	8f#\L	.	8dd\	.	8dd\	.	8dd\	tu-	nel
.	.	.	.	8qqcc#/	.	8qqcc#/	.	8qqb/	.	.
8E/	.	8e\	.	4b\	.	4b\	.	4b\	-us	mio
8EE/J	.	8e\J	.	.	.	.	.	.	.	.
!	!	!	!	!	!	!LO:LB:g=original	!	!	!	!
=24	=24	=24	=24	=24	=24	=24	=24	=24	=24	=24
.	.	.	.	8qqb/	.	8qqb/	.	8qqb/	.	.
4AA/	.	4e\	.	4a/	.	4cc#\	.	4cc#\	Na-	sen
8r	.	8r	.	8ee\	.	[>8ee\	.	8ee\	-tus	qua
!	!	!	!	!	!	!	!	!LO:LB:g=original	!	!
=25	=25	=25	=25	=25	=25	=25	=25	=25	=25	=25
8C#/L	.	8A\L	.	8ee\L	.	8ee\L]	.	8ee\	ut	do-
!	!	!	!	!	!	!	!	!LO:TX:b:t=P:problem:dywiz jako przedłużenie sylaby	!	!
8D/	.	8f#\	.	16dd\L	.	16dd\L	.	16dd\LL	a-	.
.	.	.	.	16cc#\	.	16cc#\	.	16cc#\JJ	.	.
8D#X/J	.	8f#\J	.	16b\	.	16b\	.	16b\LL	.	-vi
.	.	.	.	16a\JJ	.	16a\JJ	.	16a\JJ	.	.
=26	=26	=26	=26	=26	=26	=26	=26	=26	=26	=26
8E\L	.	8B/L	.	16g#/LL	.	16g#/LL	.	(<8g#/L	-cae-	bra-
.	.	.	.	16f#/J	.	16f#/J	.	.	.	.
8E\	.	8B/	.	8e/J	.	8e/J	.	8f#/J)	.	.
8F#\J	.	8A/J	.	8r	.	8r	.	8e/	-de	-ste
=27	=27	=27	=27	=27	=27	=27	=27	=27	=27	=27
!	!	!	!	!	!	!LO:TX:t=P:problem:mixed beam	!	!	!	!
8G#\L	.	8G#/L	.	8bb\L	.	8bb\L	.	4b\	tu-	vui-
!	!	!	!	!	!	!LO:TUP:b:problem:klamra łukowa	!	!	!	!
8E\	.	8E/	.	24b\L	.	24b/L	.	.	.	.
.	.	.	.	24cc#\	.	24cc#/	.	.	.	.
.	.	.	.	24dd\J	.	24dd/J	.	.	.	.
8A\J	.	8A/J	.	8cc#\J	.	8cc#/J	.	8cc#\	-us	-di
=28	=28	=28	=28	=28	=28	=28	=28	=28	=28	=28
.	.	.	.	.	.	.	.	8qqee/	.	.
8r	.	8r	.	8bb\L	.	8bb\L	.	4dd#X\	Na-	vin-
!	!	!	!	!	!	!LO:TUP:a:problem:klamra łukowa	!	!	!	!
8B\L	.	8B/L	.	24dd#X\L	.	24dd#X\L	.	.	.	.
.	.	.	.	24ee\	.	24ee\	.	.	.	.
.	.	.	.	24ff#\J	.	24ff#\J	.	.	.	.
8c#\J	.	8c#/J	.	8ee\J	.	8ee\J	.	8ee\	-tus	-cer-
=29	=29	=29	=29	=29	=29	=29	=29	=29	=29	=29
!	!	!	!	!	!	!	!	!LO:TX:b:t=P:problem:litera m z kreską u góry	!	!
8r	.	8r	.	8bb\L	.	8bb\L	.	4b\	tu-	-m
!	!	!	!	!	!	!LO:TUP:a:problem:klamra łukowa	!	!	!	!
8G#\L	.	8g#\L	.	24b\L	.	24b\L	.	.	.	.
.	.	.	.	24cc#\	.	24cc#\	.	.	.	.
.	.	.	.	24ddn\J	.	24ddn\J	.	.	.	.
8A\J	.	8a\J	.	8cc#\J	.	8cc#\J	.	8cc#\	-us	in
!LO:LB:g=original	!	!	!	!	!	!	!	!	!	!
=30	=30	=30	=30	=30	=30	=30	=30	=30	=30	=30
8r	.	8r	.	8bb\L	.	8bb\L	.	4dd#X\	Na-	se-
!	!	!	!	!LO:TUP:a:problem:klamra łukowa	!	!	!	!	!	!
!	!	!	!	!	!	!LO:TUP:a:problem:klamra łukowa	!	!	!	!
8B\L	.	8a\L	.	24dd#X\L	.	24dd#X\L	.	.	.	.
.	.	.	.	24ee\	.	24ee\	.	.	.	.
.	.	.	.	24ff#\J	.	24ff#\J	.	.	.	.
8c#\J	.	8g#\J	.	8ee\J	.	8ee\J	.	8ee\	-tus	-gna-
!	!	!LO:LB:g=original	!	!LO:LB:g=original	!	!	!	!	!	!
=31	=31	=31	=31	=31	=31	=31	=31	=31	=31	=31
8r	.	8r	.	8aa\L	.	8aa\L	.	8.ff#\L	ut	-ste
!	!	!	!	!	!	!LO:TUP:a:problem:klamra łukowa	!	!	!	!
8d#X\L	.	8f#\L	.	24ff#\L	.	24ff#\L	.	.	.	.
.	.	.	.	24gg#\	.	24gg#\	.	.	.	.
!	!	!	!	!	!	!	!	!LO:TX:b:t=P:problem:litera m z kreską u góry	!	!
.	.	.	.	.	.	.	.	32gg#\LL	.	m
.	.	.	.	24aa\JJ	.	24aa\JJ	.	.	.	.
!	!	!	!	!	!	!	!	!LO:TX:b:t=P:problem:litera m z kreską u góry	!	!
.	.	.	.	.	.	.	.	32aa\JJJ	.	m
!	!	!	!	!	!	!LO:TUP:a:problem:klamra łukowa	!	!	!	!
8e\J	.	8e\J	.	24gg#\LL	.	24gg#\LL	.	8gg#\	a	se-
.	.	.	.	24ff#\	.	24ff#\	.	.	.	.
.	.	.	.	24ee\JJ	.	24ee\JJ	.	.	.	.
=32	=32	=32	=32	=32	=32	=32	=32	=32	=32	=32
!	!	!	!	!	!	!LO:TX:t=P:problem:mixed beam	!	!	!	!
8B\L	.	8r	.	8bb\L	.	8bb\L	.	(>16ff#\LL	cae-	-gna-
.	.	.	.	.	.	.	.	16dd#X\JJ)	.	.
!	!	!LO:N:vis=4	!	!	!	!	!	!	!	!
8B\	.	8d#X\	.	8b\J	.	8b/J	.	8b\	-de	-ste
!	!	!LO:TX:a:t=fis	!	!	!	!	!	!	!	!
8A\J	.	8g#\	.	8r	.	8r	.	8r	.	.
!	!	!	!	!	!	!	!	!LO:LB:g=original	!	!
=33	=33	=33	=33	=33	=33	=33	=33	=33	=33	=33
4G#\	.	4g#\	.	4b/	.	4ee\	.	4ee\	No-	si
.	.	.	.	.	.	.	.	8qqdd/	.	.
8A\	.	8a\	.	8e/	.	8cc#\	.	8cc#\	-stri	begl
!	!	!	!	!	!	!LO:LB:g=original	!	!	!	!
=34	=34	=34	=34	=34	=34	=34	=34	=34	=34	=34
.	.	.	.	.	.	8qqb/	.	.	.	.
8F#\L	.	8f#\L	.	8e/L	.	4a/	.	8b\L	Ma-	oc-
8BB\	.	8B\	.	8d#X/	.	.	.	(>8a\J	.	-chio
8E\J	.	8e\J	.	8e/J	.	8g#/	.	8g#\)	-num	.
=35	=35	=35	=35	=35	=35	=35	=35	=35	=35	=35
!	!	!	!	!	!	!	!	!LO:TUP:b:problem:klamra łukowa	!	!
8AA/L	.	8c#/L	.	8f#/	.	8a/	.	24a/LL	tem-	um
.	.	.	.	.	.	.	.	24g#/	.	.
.	.	.	.	.	.	.	.	24f#/JJ	.	.
.	.	.	.	8qqe/	.	8qqg#/	.	8qqg#/	.	.
8BB/	.	8B/	.	4d#X/	.	4f#/	.	8.f#/	.	ce-
8BB/J	.	8A/J	.	.	.	.	.	.	.	.
.	.	.	.	.	.	.	.	16f#/	-pe-	.
=36	=36	=36	=36	=36	=36	=36	=36	=36	=36	=36
4EE/	.	4G#/	.	4e/	.	4e/	.	4e/	-ret	-ro
8r	.	8r	.	8r	.	8r	.	8r	.	.
=37	=37	=37	=37	=37	=37	=37	=37	=37	=37	=37
!	!	!	!	!	!	!	!	!LO:TX:b:t=P:problem:dywiz jako przedłużenie sylaby	!	!
4G#\	.	4B/	.	4e/	.	4ee\	.	4ee\	O-	si
8A\	.	[<8c#/	.	8e/	.	8cc#\	.	8cc#\	.	begl
=38	=38	=38	=38	=38	=38	=38	=38	=38	=38	=38
.	.	.	.	.	.	8qqb/	.	8qqb/	.	.
8F#\L	.	8c#/L]	.	8f#/	.	4.a/	.	4.a\	-Ma-	oc-
.	.	.	.	8qqe/	.	.	.	.	.	.
8D#X\	.	8B/	.	4d#X/	.	.	.	.	.	.
8BB\J	.	8B/J	.	.	.	.	.	.	.	.
=39	=39	=39	=39	=39	=39	=39	=39	=39	=39	=39
4E\	.	4B/	.	4e/	.	4g#/	.	4g#\	-ter	-chi
8r	.	8r	.	8r	.	8r	.	8r	.	.
=40	=40	=40	=40	=40	=40	=40	=40	=40	=40	=40
8G#\L	.	8G#/L	.	8g#/L	.	8g#/L	.	8g#\	in-	io
8A\	.	8A/	.	8a/	.	8a/	.	8a\	-ter-	vin-
8B\J	.	8B/J	.	8b/J	.	8b/J	.	8b\	-ce-	-ce-
!LO:LB:g=original	!	!	!	!	!	!	!	!	!	!
=41	=41	=41	=41	=41	=41	=41	=41	=41	=41	=41
.	.	.	.	.	.	8qqb\LL	.	.	.	.
.	.	.	.	8qqb/	.	8qqa\JJ	.	.	.	.
4c#;>\	.	4.c#;</	.	4.cc#;>\	.	4.cc#;>\	.	4.cc#;>\	-de	-ro
8r	.	.	.	.	.	.	.	.	.	.
!	!	!LO:LB:g=original	!	!	!	!	!	!	!	!
=42	=42	=42	=42	=42	=42	=42	=42	=42	=42	=42
!LO:TX:t=P:problem:mixed beam	!	!	!LO:DY:b	!	!LO:DY:b	!	!LO:DY:a:rj	!	!	!
!	!	!	!LO:HP:b:i:t=forte	!	!LO:HP:b:i:t=For.	!	!LO:HP:a:i:t=for:	!	!	!
8A\L	.	8cc#\L	f	8aa\	f	8aa\	f	8aa\	in-	io
!	!	!	!	!	!	!	!	!LO:LB:g=original	!	!
*	*	*	*	*	*	*	*	*Xtuplet	*	*
!	!	!	!	!	!	!LO:TUP:a:problem:klamra łukowa	!	!	!	!
8B\	.	8b\	.	24gg#\LL	.	24gg#\LL	.	24gg#\LL	-ter-	vin-
.	.	.	.	24ff#\	.	24ff#\	.	24ff#\	.	.
.	.	.	.	24ee\JJ	.	24ee\JJ	.	(>24ee\JJ	.	.
!	!	!	!	!	!	!LO:TUP:a:problem:klamra łukowa	!	!	!	!
8BB/J	.	8a\J	.	24ff#\LL	.	24ff#\LL	.	24ff#\LL)	-ce-	-ce-
.	.	.	.	24ee\	.	24ee\	.	(>24ee\	.	.
!	!	!	!	!LO:TX:a:t=P:problem:# above	!	!LO:SIC:s=16dd#	!	!	!	!
.	.	.	.	24dd#X\JJ	.	24dd\JJ	.	24dd\JJ)	.	.
!	!	!	!	!LO:LB:g=original	!	!	!	!	!	!
=43	=43	=43	=43	=43	=43	=43	=43	=43	=43	=43
!	!	!	!	!	!	!LO:TX:t=P:problem:mixed beam	!	!	!	!
8E\L	.	8g#\L	.	8bb\L	.	8bb\L	.	4ee\	-de.	-ro.
!	!	!	!	!	!	!LO:TUP:b:problem:klamra łukowa	!	!	!	!
8G#\	.	8g#\	.	24b\L	.	24b/L	.	.	.	.
.	.	.	.	24cc#\	.	24cc#/	.	.	.	.
.	.	.	.	24ddn\J	.	24ddn/J	.	.	.	.
8A\J	.	8a\J	.	8cc#\J	.	8cc#/J	.	8r	.	.
=44	=44	=44	=44	=44	=44	=44	=44	=44	=44	=44
!	!	!	!	!	!	!	!	!LO:N:vis=00	!	!
8r	.	8r	.	8bb\L	.	8bb\L	.	1.r	.	.
!	!	!	!	!LO:TUP:a:problem:klamra łukowa	!	!	!	!	!	!
!	!	!	!	!	!	!LO:TUP:a:problem:klamra łukowa	!	!	!	!
8A\L	.	8a\L	.	24cc#\L	.	24cc#\L	.	.	.	.
.	.	.	.	24dd#X\	.	24dd#X\	.	.	.	.
.	.	.	.	24ee\J	.	24ee\J	.	.	.	.
8B\J	.	8b\J	.	8dd#\J	.	8dd#\J	.	.	.	.
!	!	!	!	!	!	!LO:LB:g=original	!	!	!	!
=45	=45	=45	=45	=45	=45	=45	=45	=45	=45	=45
8r	.	8r	.	8bb\L	.	8bb\L	.	.	.	.
!	!	!	!	!LO:TUP:a:problem:klamra łukowa	!	!	!	!	!	!
!	!	!	!	!	!	!LO:TUP:a:problem:klamra łukowa	!	!	!	!
8B\L	.	8b\L	.	24dd#X\L	.	24dd#X\L	.	.	.	.
.	.	.	.	24ee\	.	24ee\	.	.	.	.
.	.	.	.	24ff#\J	.	24ff#\J	.	.	.	.
8c#\J	.	8cc#\J	.	8ee\J	.	8ee\J	.	.	.	.
=46	=46	=46	=46	=46	=46	=46	=46	=46	=46	=46
8r	.	8r	.	8bb\L	.	8bb\L	.	.	.	.
!	!	!	!	!LO:TUP:a:problem:klamra łukowa	!	!	!	!	!	!
!	!	!	!	!	!	!LO:TUP:a:problem:klamra łukowa	!	!	!	!
8c#\L	.	8cc#\L	.	24ee\L	.	24ee\L	.	.	.	.
.	.	.	.	24ff#\	.	24ff#\	.	.	.	.
.	.	.	.	24gg#\J	.	24gg#\J	.	.	.	.
8d#X\J	.	8dd#X\J	.	8ff#\J	.	8ff#\J	.	.	.	.
=47	=47	=47	=47	=47	=47	=47	=47	=47	=47	=47
8r	.	8r	.	8bb\L	.	8bb\L	.	.	.	.
!	!	!	!	!	!	!LO:TUP:a:problem:klamra łukowa	!	!	!	!
8d#X\L	.	8b\L	.	24ff#\L	.	24ff#\L	.	.	.	.
.	.	.	.	24gg#\	.	24gg#\	.	.	.	.
.	.	.	.	24aa\J	.	24aa\J	.	.	.	.
8e\J	.	8b\J	.	8gg#\J	.	8gg#\J	.	.	.	.
=48	=48	=48	=48	=48	=48	=48	=48	=48	=48	=48
!LO:TX:t=P:problem:mixed beam	!	!	!	!	!	!	!	!	!	!
!	!	!	!	!	!	!	!	!LO:N:vis=00	!	!
8A\L	.	8a\	.	16.cc#\LL	.	16.cc#\LL	.	1.r	.	.
.	.	.	.	32ff#\JJk	.	32ff#\JJk	.	.	.	.
.	.	8qqg#/	.	8qqee/	.	8qqee/	.	.	.	.
8B\	.	4f#\	.	4dd#X\	.	4dd#Xt>\	.	.	.	.
8BB/J	.	.	.	.	.	.	.	.	.	.
=49	=49	=49	=49	=49	=49	=49	=49	=49	=49	=49
8r	.	8r	.	8bb\L	.	8bb\L	.	.	.	.
!	!	!	!	!	!	!LO:TUP:a:problem:klamra łukowa	!	!	!	!
8d#X\L	.	8b\L	.	24ff#\L	.	24ff#\L	.	.	.	.
.	.	.	.	24gg#\	.	24gg#\	.	.	.	.
.	.	.	.	24aa\J	.	24aa\J	.	.	.	.
8e\J	.	8b\J	.	8gg#\J	.	8gg#\J	.	.	.	.
=50	=50	=50	=50	=50	=50	=50	=50	=50	=50	=50
!LO:TX:t=P:problem:mixed beam	!	!	!	!	!	!	!	!	!	!
8A\L	.	8a\	.	16.cc#\LL	.	16.cc#\LL	.	.	.	.
.	.	.	.	32ff#\JJk	.	32ff#\JJk	.	.	.	.
.	.	8qqg#/	.	16qqee/	.	8qqee/	.	.	.	.
8B\	.	4f#\	.	4dd#X\	.	4dd#Xt>\	.	.	.	.
8BB/J	.	.	.	.	.	.	.	.	.	.
!LO:LB:g=original	!	!	!	!	!	!	!	!	!	!
=51	=51	=51	=51	=51	=51	=51	=51	=51	=51	=51
!	!	!	!	!LO:TX:t=P:problem:mixed beam	!	!LO:TX:t=P:problem:mixed beam	!	!	!	!
4E\	.	4g#\	.	8ee\L	.	8ee\L	.	.	.	.
.	.	.	.	8e/J	.	8e/J	.	.	.	.
8r	.	8r	.	8r	.	8r	.	.	.	.
!	!	!LO:LB:g=original	!	!	!	!	!	!	!	!
=52	=52	=52	=52	=52	=52	=52	=52	=52	=52	=52
!	!	!	!	!	!	!	!	!LO:TX:b:t=P:problem:dywiz jako przedłużenie sylaby	!	!
4E\	.	4G#/	.	8e/L	.	8e/L	.	8e/L	O-	L'a
!	!	!	!	!	!	!	!LO:HP:b:i:t=p:	!	!	!
!	!	!	!	!	!	!	!LO:DY:b	!	!	!
.	.	.	.	8g#/	.	8g#/	p	8g#X/J	.	.
8r	.	8r	.	8b/J	.	[<8b/J	.	8b\	.	dol-
=53	=53	=53	=53	=53	=53	=53	=53	=53	=53	=53
4GG#/	.	4e\	.	8b\L	.	8b/L]	.	8b\L	-Ma-	-ciſ-
.	.	.	.	8ee\	.	8ee/	.	8ee\J	.	.
8r	.	8r	.	8b\J	.	[<8b/J	.	8b\	-ter	-si-
!	!	!	!	!LO:LB:g=original	!	!	!	!	!	!
=54	=54	=54	=54	=54	=54	=54	=54	=54	=54	=54
!	!	!	!	!LO:TX:t=P:problem:mixed beam	!	!	!	!	!	!
4AA/	.	4e\	.	8b\L	.	8b/L]	.	8b\L	in-	-ma
.	.	.	.	8cc#\	.	8cc#/	.	(>8cc#\J	.	.
8AA#X/	.	8c#/	.	8e/J	.	8e/J	.	8e/)	-ter-	sa
=55	=55	=55	=55	=55	=55	=55	=55	=55	=55	=55
!LO:TX:t=P:problem:mixed beam	!	!	!	!	!	!	!	!	!	!
.	.	.	.	16qqe/	.	8qqe/	.	8qqe/	.	.
8BB/L	.	[>4.B/	.	4.d#X/	.	4.d#X/	.	4.d#X/	-ce-	et
8B\	.	.	.	.	.	.	.	.	.	.
8A\J	.	.	.	.	.	.	.	.	.	.
!	!	!	!	!	!	!LO:LB:g=original	!	!	!	!
=56	=56	=56	=56	=56	=56	=56	=56	=56	=56	=56
8G#\L	.	8B/L]	.	4.e/	.	4.e/	.	4.e/	-de	ta
8F#\	.	8A/	.	.	.	.	.	.	.	.
8E\J	.	8G#/J	.	.	.	.	.	.	.	.
=57	=57	=57	=57	=57	=57	=57	=57	=57	=57	=57
4F#\	.	4F#/	.	4a/	.	8ddn\	.	8ddn\	tu-	nel
.	.	.	.	.	.	4dd\	.	4dd\	-us	mio
8G#\	.	8G#/	.	8b/	.	.	.	.	.	.
=58	=58	=58	=58	=58	=58	=58	=58	=58	=58	=58
4A\	.	4A/	.	4e/	.	8dd\L	.	8dd\L	Na-	sen
.	.	.	.	.	.	8cc#\	.	8cc#\	.	.
8r	.	8r	.	[>8cc#\	.	[>8ee\J	.	8aa\J	.	.
!	!	!	!	!	!	!	!	!LO:LB:g=original	!	!
=59	=59	=59	=59	=59	=59	=59	=59	=59	=59	=59
4D/	.	4d\	.	8cc#\L]	.	8ee\L]	.	8aa\	-tus	quan-
.	.	.	.	8b\	.	8dd\	.	8dd\	ut	-do
8D#X/	.	8d#X\	.	8a\J	.	8cc#\J	.	8cc#\	a	vi
=60	=60	=60	=60	=60	=60	=60	=60	=60	=60	=60
!	!	!	!	!	!	!	!	!	!LO:SIC:s=cae-	!
8E\L	.	8e\L	.	8a/L	.	8cc#\L	.	8cc#\	ce-	bra-
8E\	.	8e\	.	8g#/J	.	8b\J	.	8b\	-de	-ſte
8D\J	.	8dn\J	.	8r	.	8r	.	8r	.	.
=61	=61	=61	=61	=61	=61	=61	=61	=61	=61	=61
!	!	!	!	!LO:TX:t=P:problem:mixed beam	!	!LO:TX:t=P:problem:mixed beam	!	!LO:TX:t=P:problem:mixed beam	!	!
8r	.	8r	.	8ee\L	.	8ee\L	.	8ee\L	No-	vio
!	!	!	!	!LO:TUP:b:problem:klamra łukowa	!	!	!	!	!	!
!	!	!	!	!	!	!LO:TUP:b:problem:klamra łukowa	!	!	!	!
8C#/L	.	8c#\L	.	24e/L	.	24e/L	.	(>8e/J	.	.
.	.	.	.	24f#/	.	24f#/	.	.	.	.
.	.	.	.	24gn/J	.	24gn/J	.	.	.	.
8D/J	.	8d\J	.	8f#/J	.	8f#/J	.	8f#/)	-stri	di
!LO:LB:g=original	!	!	!	!	!	!	!	!	!	!
=62	=62	=62	=62	=62	=62	=62	=62	=62	=62	=62
!	!	!	!	!LO:TX:t=P:problem:mixed beam	!	!LO:TX:t=P:problem:mixed beam	!	!LO:TX:t=P:problem:mixed beam	!	!
8r	.	8r	.	8ee\L	.	8gg#\L	.	8ee\L	No-	vin-
!	!	!	!	!LO:TUP:b:problem:klamra łukowa	!	!	!	!	!	!
!	!	!	!	!	!	!LO:TUP:b:problem:klamra łukowa	!	!	!	!
8D\L	.	8d\L	.	24f#/L	.	24f#/L	.	8f#/J	.	.
.	.	.	.	24g#X/	.	24g#X/	.	.	.	.
.	.	.	.	24a/J	.	24a/J	.	.	.	.
8E\J	.	8e\J	.	8g#/J	.	8g#/J	.	8g#/	-stri	-cer
!	!	!LO:LB:g=original	!	!	!	!	!	!	!	!
=63	=63	=63	=63	=63	=63	=63	=63	=63	=63	=63
!	!	!	!	!LO:TX:t=P:problem:mixed beam	!	!LO:TX:t=P:problem:mixed beam	!	!LO:TX:b:t=P:problem:litera m z kreską u góry	!	!
8r	.	8r	.	8ee\L	.	8ee\L	.	8ee\L	Nos-	m
!	!	!	!	!LO:TUP:b:problem:klamra łukowa	!	!	!	!LO:TX:b:t=P:problem:litera m z kreską u góry	!	!
!	!	!	!	!	!	!LO:TUP:b:problem:klamra łukowa	!	!	!	!
8E\L	.	8e\L	.	24g#/L	.	24g#/L	.	8g#\J	.	m
.	.	.	.	24a/	.	24a/	.	.	.	.
.	.	.	.	24b/J	.	24b/J	.	.	.	.
8F#\J	.	8f#\J	.	8a/J	.	8a/J	.	8a\	.	se-
=64	=64	=64	=64	=64	=64	=64	=64	=64	=64	=64
!	!	!	!	!LO:TX:t=P:problem:mixed beam	!	!LO:TX:t=P:problem:mixed beam	!	!	!	!
8r	.	8r	.	8ee\L	.	8ee\L	.	8ee\L	.	-gna-
!	!	!	!	!LO:TUP:b:problem:klamra łukowa	!	!	!	!	!	!
!	!	!	!	!	!	!LO:TUP:b:problem:klamra łukowa	!	!	!	!
8F#\L	.	8f#\L	.	24a/L	.	24a/L	.	8a\J	.	.
.	.	.	.	24b/	.	24b/	.	.	.	.
.	.	.	.	24cc#/J	.	24cc#/J	.	.	.	.
8G#\J	.	8g#\J	.	8b/J	.	8b/J	.	8b\	.	-ste
=65	=65	=65	=65	=65	=65	=65	=65	=65	=65	=65
8r	.	8r	.	8ee\	.	8ee\L	.	8ee\L	.	si
!	!	!	!	!LO:LB:g=original	!	!	!	!	!	!
!	!	!	!	!LO:TUP:a:problem:klamra łukowa	!	!	!	!	!	!
!	!	!	!	!	!	!LO:TUP:a:problem:klamra łukowa	!	!	!	!
8G#\L	.	8g#\L	.	24b\LL	.	24b\L	.	(>8b\J	.	.
.	.	.	.	24cc#\	.	24cc#\	.	.	.	.
.	.	.	.	24dd\J	.	24dd\J	.	.	.	.
8A\J	.	8a\J	.	8cc#\J	.	8cc#\J	.	8cc#\)	-tri	begl
=66	=66	=66	=66	=66	=66	=66	=66	=66	=66	=66
8F#\L	.	4a\	.	8.dd\L	.	8.dd\L	.	8.dd\L	Ma-	oc-
8D\	.	.	.	.	.	.	.	.	.	.
.	.	.	.	32ee\LL	.	(>32ee\LL	.	(>32ee\LL	.	.
.	.	.	.	32ff#\JJ	.	32ff#\JJJ)	.	32ff#\JJJ)	-num	.
!	!	!	!	!	!	!LO:LB:g=original	!	!	!	!
8A\J	.	8g#\	.	8ee\J	.	8ee\	.	8ee\	.	-chi
=67	=67	=67	=67	=67	=67	=67	=67	=67	=67	=67
4.r	.	4.r	.	4.r	.	4.r	.	4.r	.	.
!	!	!	!	!	!	!	!	!LO:LB:g=original	!	!
=68	=68	=68	=68	=68	=68	=68	=68	=68	=68	=68
4c#\	.	4c#\	.	4a/	.	4ee\	.	4aa\	Ma-	si
8d\	.	8d\	.	8a/	.	8ff#\	.	8ff#\	-nu(m)	begl
=69	=69	=69	=69	=69	=69	=69	=69	=69	=69	=69
.	.	.	.	.	.	8qqee/	.	8qqee/	.	.
*	*	*	*	*	*	*	*	*	*ij	*
8B\L	.	8B\L	.	(<8a/L	.	4dd\	.	4dd\	Ma-	oc-
8E\	.	8e\	.	8g#/	.	.	.	.	.	.
8A\J	.	8A\J	.	8a/J)	.	8cc#\	.	8cc#\	-num	-chi
*	*	*	*	*	*	*	*	*	*Xij	*
=70	=70	=70	=70	=70	=70	=70	=70	=70	=70	=70
!LO:TX:t=P:problem:mixed beam	!	!LO:TX:t=P:problem:mixed beam	!	!	!	!	!	!	!	!
8D\L	.	8f#\L	.	8b/	.	8dd\	.	24dd\LL	tem-	io
.	.	.	.	.	.	.	.	24cc#\	.	.
.	.	.	.	.	.	.	.	24b\JJ	.	.
!	!	!	!	!	!	!	!	!LO:TX:b:t=P:problem:nieczytelne vin/um	!	!
.	.	.	.	8qqa/	.	8qqcc#/	.	8qqcc#/	.	.
8E\	.	8e\	.	4g#/	.	4b\	.	8.b\	.	vin-
8EE/J	.	8E/J	.	.	.	.	.	.	.	.
.	.	.	.	.	.	.	.	16b\	-pe-	-ce-
=71	=71	=71	=71	=71	=71	=71	=71	=71	=71	=71
4AA/	.	4A/	.	8a/L	.	8a/L	.	4a\	-ret	-ro
.	.	.	.	24c#/L	.	24c#/L	.	.	.	.
.	.	.	.	24d/	.	24d/	.	.	.	.
.	.	.	.	24e/J	.	24e/J	.	.	.	.
8r	.	8r	.	8A/J	.	8A/J	.	8r	.	.
=72	=72	=72	=72	=72	=72	=72	=72	=72	=72	=72
4A\	.	4a\	.	8r	.	8r	.	4cc#\	tu-	vui
!	!	!	!	!LO:TUP:a:problem:klamra łukowa	!	!	!	!	!	!
!	!	!	!	!	!	!LO:TUP:a:problem:klamra łukowa	!	!	!	!
.	.	.	.	24dd#X\LL	.	24dd#X\LL	.	.	.	.
.	.	.	.	24ee\	.	24ee\	.	.	.	.
.	.	.	.	24ff#\J	.	24ff#\J	.	.	.	.
8r	.	8r	.	8ee\J	.	8ee\J	.	8r	.	.
!LO:LB:g=original	!	!	!	!	!	!	!	!	!	!
=73	=73	=73	=73	=73	=73	=73	=73	=73	=73	=73
4G#\	.	4g#\	.	8r	.	8r	.	4b\	-us	si
!	!	!	!	!LO:TUP:a:problem:klamra łukowa	!	!LO:SIC:s=dd#	!	!	!	!
!	!	!	!	!	!	!LO:TUP:a:problem:klamra łukowa	!	!	!	!
.	.	.	.	24dd#X\LL	.	24dd\LL	.	.	.	.
.	.	.	.	24ee\	.	24ee\	.	.	.	.
.	.	.	.	24ff#\J	.	24ff#\J	.	.	.	.
8r	.	8r	.	8ee\J	.	8ee\J	.	8r	.	.
=74	=74	=74	=74	=74	=74	=74	=74	=74	=74	=74
4F#\	.	4f#\	.	8r	.	8r	.	4a\	Na-	si
!	!	!	!	!LO:TUP:a:problem:klamra łukowa	!	!LO:SIC:s=dd#	!	!	!	!
!	!	!	!	!	!	!LO:TUP:a:problem:klamra łukowa	!	!	!	!
.	.	.	.	24dd#X\LL	.	24dd\LL	.	.	.	.
.	.	.	.	24ee\	.	24ee\	.	.	.	.
.	.	.	.	24ff#\J	.	24ff#\J	.	.	.	.
8r	.	8r	.	8ee\J	.	8ee\J	.	8r	.	.
!	!	!LO:LB:g=original	!	!	!	!	!	!	!	!
=75	=75	=75	=75	=75	=75	=75	=75	=75	=75	=75
8E\L	.	4e\	.	8r	.	8r	.	8a\L	-tus	vui
!	!	!	!	!	!	!	!	!LO:TX:a:t=|:problem	!	!
!	!	!	!	!	!	!LO:TUP:b:problem:klamra łukowa	!	!	!	!
8E\	.	.	.	24g#/LL	.	24g#/LL	.	8g#\J	.	.
.	.	.	.	24a/	.	24a/	.	.	.	.
.	.	.	.	24b/J	.	24b/J	.	.	.	.
8D\J	.	8r	.	8e/J	.	8g#/J	.	8r	.	.
!	!	!	!	!LO:LB:g=original	!	!	!	!	!	!
=76	=76	=76	=76	=76	=76	=76	=76	=76	=76	=76
!	!	!	!	!LO:TX:t=P:problem:mixed beam	!	!LO:TX:t=P:problem:mixed beam	!	!LO:TX:t=P:problem:mixed beam	!	!
8r	.	8r	.	8ee\L	.	8ee\L	.	8ee\L	tu-	voi
!	!	!	!	!LO:TUP:b:problem:klamra łukowa	!	!	!	!	!	!
!	!	!	!	!	!	!LO:TUP:b:problem:klamra łukowa	!	!	!	!
8C#/L	.	8c#\L	.	24e/L	.	24e/L	.	(>8e/J	.	.
.	.	.	.	24f#/	.	24f#/	.	.	.	.
.	.	.	.	24gn/J	.	24gn/J	.	.	.	.
8D/J	.	8d\J	.	8f#/J	.	8f#/J	.	8f#/)	-us	di
!	!	!	!	!	!	!LO:LB:g=original	!	!	!	!
=77	=77	=77	=77	=77	=77	=77	=77	=77	=77	=77
!	!	!	!	!LO:TX:t=P:problem:mixed beam	!	!LO:TX:t=P:problem:mixed beam	!	!LO:TX:t=P:problem:mixed beam	!	!
8r	.	8r	.	8ee\L	.	8ee\L	.	(>8ee\L	Na-	vin-
!	!	!	!	!LO:TUP:b:problem:klamra łukowa	!	!	!	!	!	!
!	!	!	!	!	!	!LO:TUP:b:problem:klamra łukowa	!	!	!	!
8D\L	.	8d\L	.	24f#/L	.	24f#/L	.	8f#/J)	.	.
.	.	.	.	24g#X/	.	24g#X/	.	.	.	.
.	.	.	.	24a/J	.	24a/J	.	.	.	.
8E\J	.	8e\J	.	8g#/J	.	8g#/J	.	8g#/	-tus	-cer
!	!	!	!	!	!	!	!	!LO:LB:g=original	!	!
=78	=78	=78	=78	=78	=78	=78	=78	=78	=78	=78
!	!	!	!	!LO:TX:t=P:problem:mixed beam	!	!LO:TX:t=P:problem:mixed beam	!	!LO:TX:b:t=P:problem:litera m z kreską u góry	!	!
8r	.	8r	.	8ee\L	.	8ee\L	.	8ee\L	ut	m
!	!	!	!	!LO:TUP:b:problem:klamra łukowa	!	!	!	!LO:TX:b:t=P:problem:litera m z kreską u góry	!	!
!	!	!	!	!	!	!LO:TUP:b:problem:klamra łukowa	!	!	!	!
8E\L	.	8e\L	.	24g#/L	.	24g#/L	.	8g#\J	.	m
.	.	.	.	24a/	.	24a/	.	.	.	.
.	.	.	.	24b/J	.	24b/J	.	.	.	.
8F#\J	.	8f#\J	.	8a/J	.	8a/J	.	8a\	a	se-
=79	=79	=79	=79	=79	=79	=79	=79	=79	=79	=79
8r	.	8r	.	8ee\L	.	8ee\L	.	8ee\L	cae-	-gna-
!	!	!	!	!LO:TUP:a:problem:klamra łukowa	!	!	!	!	!	!
!	!	!	!	!	!	!LO:TUP:a:problem:klamra łukowa	!	!	!	!
8F#\L	.	8f#\L	.	24a\L	.	24a\L	.	8a\J	.	.
.	.	.	.	24b\	.	24b\	.	.	.	.
.	.	.	.	24cc#\J	.	24cc#\J	.	.	.	.
8G#\J	.	8g#\J	.	8b\J	.	8b\J	.	8b\	-de	-ste
=80	=80	=80	=80	=80	=80	=80	=80	=80	=80	=80
8r	.	8r	.	8ee\L	.	8ee\L	.	8ee\L	Nos-	si
!	!	!	!	!LO:TUP:a:problem:klamra łukowa	!	!	!	!	!	!
!	!	!	!	!	!	!LO:TUP:a:problem:klamra łukowa	!	!	!	!
8G#\L	.	8g#\L	.	24b\L	.	24b\L	.	8b\J	.	beg-
.	.	.	.	24cc#\	.	24cc#\	.	.	.	.
.	.	.	.	24dd\J	.	24dd\J	.	.	.	.
8A\J	.	8a\J	.	8cc#\J	.	8cc#\J	.	8cc#\	-tri	-li
=81	=81	=81	=81	=81	=81	=81	=81	=81	=81	=81
4A\	.	4a\	.	[>8dd\	.	8.dd\L	.	8.dd\L	Ma-	oc-
.	.	.	.	8dd\]	.	.	.	.	.	.
.	.	.	.	.	.	(>32ee\LL	.	(>32ee\LL	.	.
.	.	.	.	.	.	32ff#\JJ)	.	32ff#\JJJ)	-num	.
8r	.	8a\	.	8cc#\	.	8ee\J	.	8ee\	.	-chi
=82	=82	=82	=82	=82	=82	=82	=82	=82	=82	=82
4.r	.	4.r	.	4.r	.	4.r	.	4.r	.	.
=83	=83	=83	=83	=83	=83	=83	=83	=83	=83	=83
4c#\	.	4c#/	.	4ee\	.	4aa\	.	4aa\	No-	si
8d#\	.	8d\	.	8a/	.	8ff#\	.	8ff#\	-stri	begl
!LO:LB:g=original	!	!	!	!	!	!	!	!	!	!
=84	=84	=84	=84	=84	=84	=84	=84	=84	=84	=84
.	.	.	.	.	.	8qqee/	.	.	.	.
*	*	*	*	*	*	*	*	*	*ij	*
8B\L	.	8B/L	.	8a/L	.	4dd\	.	4dd\	No-	oc-
8G#\	.	8e/	.	8g#/	.	.	.	.	.	.
8A\J	.	8E/J	.	8a/J	.	8cc#\	.	8cc#\	-stri	-chi
*	*	*	*	*	*	*	*	*	*Xij	*
=85	=85	=85	=85	=85	=85	=85	=85	=85	=85	=85
!LO:TX:t=P:problem:mixed beam	!	!	!	!	!	!	!	!	!	!
8D\L	.	8f#\L	.	8b/	.	8dd\	.	24dd\LL	tem-	io
.	.	.	.	.	.	.	.	24cc#\	.	.
.	.	.	.	.	.	.	.	24b\JJ	.	.
!	!	!	!	!	!	!	!	!LO:TX:b:t=P:problem:nieczytelne vin/um	!	!
.	.	.	.	8qqa/	.	8qqcc#/	.	8qqcc#/	.	.
8E\	.	8e\	.	4g#/	.	4b\	.	8.b\	.	vin-
8EE/J	.	8d\J	.	.	.	.	.	.	.	.
.	.	.	.	.	.	.	.	16b\	-pe-	-ce-
!	!	!LO:LB:g=original	!	!	!	!	!	!	!	!
=86	=86	=86	=86	=86	=86	=86	=86	=86	=86	=86
4AA/	.	4c#/	.	4a/	.	4a/	.	4a\	-ret	-ro.
8r	.	8r	.	8r	.	8r	.	8r	.	.
!	!	!	!	!LO:LB:g=original	!	!	!	!LO:LB:g=original	!	!
=87	=87	=87	=87	=87	=87	=87	=87	=87	=87	=87
4c#\	.	4c#\	.	4ee\	.	4aa\	.	4aa\	ut	si
8d\	.	[<8f#\	.	8a/	.	8ff#\	.	8ff#\	a	begl
=88	=88	=88	=88	=88	=88	=88	=88	=88	=88	=88
.	.	.	.	.	.	8qqee/	.	.	.	.
8B\L	.	8f#\L]	.	4b/	.	4.dd\	.	4.dd\	cae-	oc-
8G#\	.	8e\	.	.	.	.	.	.	.	.
8E\J	.	8e\J	.	8g#/	.	.	.	.	.	.
!	!	!	!	!	!	!LO:LB:g=original	!	!	!	!
=89	=89	=89	=89	=89	=89	=89	=89	=89	=89	=89
4A\	.	4e\	.	4a/	.	4cc#\	.	4cc#\	-de	-chi
8r	.	8r	.	8r	.	8r	.	8r	.	.
=90	=90	=90	=90	=90	=90	=90	=90	=90	=90	=90
!	!	!	!	!	!	!LO:TX:b:i:t=poco	!	!	!	!
8C#\L	.	8c#\L	.	8e/L	.	8e/L	.	8e/	tu-	io
8D\	.	8d\	.	8f#/	.	8f#/	.	8f#/	-us	vin-
!	!	!	!	!	!	!	!LO:DY:b	!	!	!
!	!	!	!	!	!	!	!LO:HP:b:i:t=f:	!	!	!
8E\J	.	8e\J	.	8g#/J	.	8g#/J	f	8g#/	na-	-ce-
=91	=91	=91	=91	=91	=91	=91	=91	=91	=91	=91
.	.	.	.	16qqg#/	.	16qqg#/	.	8qqg#/	.	.
4.F#;>\	.	4.f#;>\	.	4.a;>/	.	4.a;>/	.	4.a;>\	-tus	-ro
=92	=92	=92	=92	=92	=92	=92	=92	=92	=92	=92
!	!	!LO:TX:t=P:problem:mixed beam	!	!	!	!	!	!	!	!
!	!	!LO:TX:a:t=P:problem:16\right:global	!	!	!	!	!	!	!	!
16C#/LL	.	16c#\LL	.	8aa\L	.	8aa\L	.	8aa\	tem-	io
16D/JJ	.	16d\J	.	.	.	.	.	.	.	.
!	!	!	!	!LO:TUP:a:problem:klamra łukowa	!	!	!	!LO:TUP:a:problem:klamra łukowa	!	!
!	!	!	!	!	!	!LO:TUP:a:problem:klamra łukowa	!	!	!	!
8E/L	.	8e\	.	24gg#\L	.	24gg#\L	.	24gg#\LL	.	vin-
.	.	.	.	24ff#\	.	24ff#\	.	24ff#\	.	.
.	.	.	.	24ee\JJ	.	24ee\	.	24ee\JJ	.	.
!	!	!	!	!LO:TUP:a:problem:klamra łukowa	!	!	!	!LO:TUP:a:problem:klamra łukowa	!	!
!	!	!	!	!	!	!LO:TUP:a:problem:klamra łukowa	!	!	!	!
8EE/J	.	8E/J	.	24dd\LL	.	24dd\	.	24dd\LL	-pe-	-ce-
.	.	.	.	24cc#\	.	24cc#\	.	24cc#\	.	.
.	.	.	.	24b\JJ	.	24b\JJ	.	24b\JJ	.	.
=93	=93	=93	=93	=93	=93	=93	=93	=93	=93	=93
!LO:TX:t=P:problem:mixed beam	!	!LO:N:vis=4	!	!	!	!LO:TX:t=P:problem:mixed beam	!	!	!	!
!	!	!LO:N:vis=4	!	!	!	!	!	!	!	!
8AA/L	.	8AL	.	16a\LL	.	16a/LL	.	4a\	-ret.	-ro.
.	.	.	.	16ee\	.	16ee\	.	.	.	.
!	!	!LO:N:vis=4	!	!	!	!	!	!	!	!
!	!	!LO:TX:a:t=e	!	!	!	!	!	!	!	!
8A\	.	8e/	.	16dd\	.	16dd\	.	.	.	.
.	.	.	.	16cc#\	.	16cc#\	.	.	.	.
!	!	!LO:N:vis=4	!	!	!	!	!	!	!	!
8F#\J	.	8d#X/	.	16b\	.	16b\	.	8r	.	.
.	.	.	.	16a\JJ	.	16a\JJ	.	.	.	.
!LO:LB:g=original	!	!	!	!	!	!	!	!	!	!
=94	=94	=94	=94	=94	=94	=94	=94	=94	=94	=94
!	!	!	!	!	!	!	!	!LO:N:vis=00	!	!
8E\L	.	8e\L	.	24g#/LL	.	24g#/LL	.	1.r	.	.
.	.	.	.	24a/	.	24a/	.	.	.	.
.	.	.	.	24b/J	.	24b/JJ	.	.	.	.
8E\	.	8e\	.	8e/J	.	8e/	.	.	.	.
8Dn\J	.	8dn\J	.	8r	.	8r	.	.	.	.
=95	=95	=95	=95	=95	=95	=95	=95	=95	=95	=95
!	!	!	!	!LO:TX:t=P:problem:mixed beam	!	!LO:TX:t=P:problem:mixed beam	!	!	!	!
8r	.	8r	.	8ee\L	.	8ee\L	.	.	.	.
!	!	!	!	!LO:TUP:b:problem:klamra łukowa	!	!	!	!	!	!
!	!	!	!	!	!	!LO:TUP:b:problem:klamra łukowa	!	!	!	!
8C#/L	.	8c#\L	.	24e/L	.	24e/L	.	.	.	.
.	.	.	.	24f#/	.	24f#/	.	.	.	.
.	.	.	.	24gn/J	.	24gn/J	.	.	.	.
8D/J	.	8d\J	.	8f#/J	.	8f#/J	.	.	.	.
=96	=96	=96	=96	=96	=96	=96	=96	=96	=96	=96
!	!	!LO:TX:a:t=P:problem:1 brakujący takt [por. t.96 org]	!	!LO:TX:t=P:problem:mixed beam	!	!LO:TX:t=P:problem:mixed beam	!	!	!	!
8r	.	8r	.	8ee\L	.	8ee\L	.	.	.	.
!	!	!	!	!	!	!LO:TUP:b:problem:klamra łukowa	!	!	!	!
8D\L	.	8d\L	.	24f#/L	.	24f#/L	.	.	.	.
.	.	.	.	24g#X/	.	24g#X/	.	.	.	.
.	.	.	.	24a/J	.	24a/J	.	.	.	.
8E\J	.	8e\J	.	8g#/J	.	8g#/J	.	.	.	.
!	!	!	!	!LO:LB:g=original	!	!	!	!	!	!
=97	=97	=97	=97	=97	=97	=97	=97	=97	=97	=97
!	!	!	!	!LO:TX:t=P:problem:mixed beam	!	!LO:TX:t=P:problem:mixed beam	!	!	!	!
8r	.	8r	.	8ee\L	.	8ee\L	.	.	.	.
!	!	!	!	!LO:TUP:b:problem:klamra łukowa	!	!	!	!	!	!
8E\L	.	8e\L	.	24g#/L	.	24g#/L	.	.	.	.
.	.	.	.	24a/	.	24a/	.	.	.	.
.	.	.	.	24b/J	.	24b/J	.	.	.	.
8F#\J	.	8f#\J	.	8a/J	.	8a/J	.	.	.	.
!	!	!LO:LB:g=original	!	!	!	!LO:LB:g=original	!	!	!	!
=98	=98	=98	=98	=98	=98	=98	=98	=98	=98	=98
!LO:TX:a:t=P:problem:takt dopisany na dole strony	!	!	!	!	!	!	!	!	!	!
!LO:TX:i:a:t=+ vi/tro	!	!	!	!LO:TX:t=P:problem:mixed beam	!	!LO:TX:t=P:problem:mixed beam	!	!	!	!
!	!	!	!	!	!	!	!	!LO:N:vis=00	!	!
8r	.	8r	.	8ee\L	.	8ee\L	.	1.r	.	.
!	!	!	!	!LO:TUP:b:problem:klamra łukowa	!	!	!	!	!	!
!	!	!	!	!	!	!LO:TUP:b:problem:klamra łukowa	!	!	!	!
8F#\L	.	8f#\L	.	24a/L	.	24a/L	.	.	.	.
.	.	.	.	24b/	.	24b/	.	.	.	.
.	.	.	.	24cc#/J	.	24cc#/J	.	.	.	.
8G#\J	.	8g#\J	.	8b/J	.	8b/J	.	.	.	.
=99	=99	=99	=99	=99	=99	=99	=99	=99	=99	=99
!	!	!	!	!	!	!LO:N:vis=8	!	!	!	!
8r	.	8r	.	8ee\L	.	16ee\L	.	.	.	.
!	!	!	!	!	!	!LO:N:vis=8	!	!	!	!
.	.	.	.	.	.	16a	.	.	.	.
!	!	!	!	!LO:TUP:a:problem:klamra łukowa	!	!	!	!	!	!
8G#\L	.	8g#\L	.	24b\L	.	24b\L	.	.	.	.
.	.	.	.	24cc#\	.	24cc#\	.	.	.	.
.	.	.	.	24dd\J	.	24dd\J	.	.	.	.
8A\J	.	8a\J	.	8cc#\J	.	8cc#\J	.	.	.	.
=100	=100	=100	=100	=100	=100	=100	=100	=100	=100	=100
8r	.	8r	.	8aa\L	.	8aa\L	.	.	.	.
8D#X\L	.	8a\L	.	8ccn\	.	8ccn\	.	.	.	.
8E\J	.	8g#\J	.	8b\J	.	8b\J	.	.	.	.
=101	=101	=101	=101	=101	=101	=101	=101	=101	=101	=101
!	!	!	!	!LO:TX:t=P:problem:mixed beam	!	!LO:TX:t=P:problem:mixed beam	!	!	!	!
8r	.	8r	.	8ff#\L	.	8ff#\L	.	.	.	.
8Dn/L	.	8b\L	.	24g#/L	.	24g#/L	.	.	.	.
.	.	.	.	24a/	.	24a/	.	.	.	.
.	.	.	.	24b/J	.	24b/J	.	.	.	.
8C#/J	.	8e\J	.	8a/J	.	8a/J	.	.	.	.
=102	=102	=102	=102	=102	=102	=102	=102	=102	=102	=102
!	!	!	!	!LO:TX:t=P:problem:mixed beam	!	!LO:TX:t=P:problem:mixed beam	!	!	!	!
!	!	!	!	!	!	!	!	!LO:N:vis=0	!	!
8r	.	8r	.	8d/L	.	8d/L	.	2.r	.	.
8BB/L	.	8b\L	.	8dd\	.	8dd\	.	.	.	.
8AA/J	.	8a\J	.	8cc#\J	.	8cc#\J	.	.	.	.
=103	=103	=103	=103	=103	=103	=103	=103	=103	=103	=103
!LO:TX:t=P:problem:mixed beam	!	!	!	!	!	!	!	!	!	!
8D\L	.	8d\	.	16.b\LL	.	16.b\LL	.	.	.	.
.	.	.	.	32cc#\JJk	.	32cc#\JJk	.	.	.	.
.	.	8qqc#/	.	8qqa/	.	8qqa/	.	.	.	.
8E\	.	4B/	.	4g#/	.	4g#/	.	.	.	.
8EE/J	.	.	.	.	.	.	.	.	.	.
!LO:LB:g=original	!	!	!	!	!	!	!	!	!	!
=104	=104	=104	=104	=104	=104	=104	=104	=104	=104	=104
!	!	!	!	!	!	!	!	!LO:TX:i:b:t=Finis	!	!
!	!	!	!	!	!	!	!	!LO:TX:b:t=P:problem:fermata również pod "Finis"	!	!
4AA/	.	4c#/	.	8a/L	.	8a/L	.	4.r;>	.	.
.	.	.	.	8A/J	.	8A/J	.	.	.	.
8r	.	8r	.	8r	.	8r	.	.	.	.
=105||	=105||	=105||	=105||	=105:|!|:	=105:|!|:	=105:|!|:	=105:|!|:	=105||	=105||	=105||
!	!LO:HP:i:b:t=Piano	!	!LO:HP:b:i:t=Piano	!	!	!	!	!	!	!
!	!LO:DY:b	!	!LO:DY:b	!	!	!	!	!	!	!
4AA/	p	4e\	p	8a\L	.	(>8a\L	.	8a\L	Il-	A
.	.	.	.	8cc#\	.	8cc#\	.	8cc#\J	.	.
8r	.	8r	.	8ee\J	.	8ee\J)	.	8ee\	-lud	il
=106	=106	=106	=106	=106	=106	=106	=106	=106	=106	=106
!	!	!	!	!	!	!	!	!LO:TX:b:t=P:problem:dywiz jako przedłużenie sylaby	!	!
4C#/	.	4A/	.	8ee\L	.	8ee\L	.	8ee\L	a-	pian-
.	.	.	.	8aa\	.	8aa\	.	8aa\J	.	.
8r	.	8r	.	8ee\J	.	[8ee\J	.	8ee\	-te	-to
!	!	!	!	!	!	!	!	!LO:LB:g=original	!	!
=107	=107	=107	=107	=107	=107	=107	=107	=107	=107	=107
!	!	!	!	!LO:TX:t=P:problem:mixed beam	!	!LO:TX:t=P:problem:mixed beam	!	!	!	!
4D/	.	4a\	.	8ee\L	.	8ee\L]	.	8ee\L	Ma-	da-
.	.	.	.	8ff#\	.	8ff#\	.	8ff#\J	.	.
8D#X/	.	8f#\	.	8a/J	.	8a/J	.	8a\	-ter	-vo
!	!	!	!	!LO:LB:g=original	!	!	!	!	!	!
=108	=108	=108	=108	=108	=108	=108	=108	=108	=108	=108
.	.	.	.	8qqa/	.	8qqa/	.	8qqa/	.	.
!	!	!	!	!	!	!LO:LB:g=original	!	!	!	!
8E/L	.	4B/	.	4g#/	.	4g#/	.	4g#\	Vir-	span-
8Dn/	.	.	.	.	.	.	.	.	.	.
!	!	!LO:LB:g=original	!	!	!	!	!	!	!	!
8C#/J	.	8e\	.	8a/	.	8a/	.	8a\	-go	-to
=109	=109	=109	=109	=109	=109	=109	=109	=109	=109	=109
8BB/L	.	8f#\L	.	8dd\	.	8dd\	.	8dd\	pi-	sal-
.	.	.	.	8qqcc#/	.	8qqcc#/	.	8qqcc#/	.	.
8E/	.	8e\	.	4b\	.	4b\	.	4b\	.	-ri-
8EE/J	.	8e\J	.	.	.	.	.	.	.	.
=110	=110	=110	=110	=110	=110	=110	=110	=110	=110	=110
.	.	.	.	.	.	.	.	8qqb/	.	.
8AA/L	.	4.e\	.	4.a/	.	4.cc#\	.	4.cc#\	-a	-val
8C#/	.	.	.	.	.	.	.	.	.	.
8E/J	.	.	.	.	.	.	.	.	.	.
=111	=111	=111	=111	=111	=111	=111	=111	=111	=111	=111
!	!	!	!	!	!	!LO:TX:i:a:t=poco	!	!	!	!
4A\	.	4e\	.	8r	.	8a\L	.	8a\	Om-	ven-
.	.	.	.	8a/L	.	8cc#\	.	8cc#\	-nes	-di-
!	!	!	!LO:HP:b:i:t=forte	!	!	!	!LO:HP:a:i:t=f:	!	!	!
!	!	!	!LO:DY:b:rj	!	!	!	!LO:DY:a	!	!	!
8r	.	8r	f	8cc#/J	.	8ee\J	f	8ee\	ex	-che-
=112	=112	=112	=112	=112	=112	=112	=112	=112	=112	=112
4AA/	.	4A/	.	8r	.	8r	.	24ggn\LL	po-	-ro-
.	.	.	.	.	.	.	.	24ff#\	.	.
.	.	.	.	.	.	.	.	24ee\JJ	.	.
.	.	.	.	8ee\L	.	8ggn\L	.	24bb\LL	.	.
.	.	.	.	.	.	.	.	24aa\	.	.
.	.	.	.	.	.	.	.	24gg\JJ	.	.
8r	.	8r	.	8dd\J	.	8ff#\J	.	24ff#\LL	.	.
.	.	.	.	.	.	.	.	24ee\	.	.
.	.	.	.	.	.	.	.	24dd\JJ	.	.
=113	=113	=113	=113	=113	=113	=113	=113	=113	=113	=113
4AA/	.	4A/	.	8r	.	8r	.	24ee\LL	.	.
.	.	.	.	.	.	.	.	24dd\	.	.
.	.	.	.	.	.	.	.	24cc#\JJ	.	.
.	.	.	.	8cc#\L	.	8ee\L	.	24ggn\LL	.	.
.	.	.	.	.	.	.	.	24ff#\	.	.
.	.	.	.	.	.	.	.	24ee\JJ	.	.
8r	.	8r	.	8b\J	.	8dd\J	.	24dd\LL	.	.
.	.	.	.	.	.	.	.	24cc#\	.	.
.	.	.	.	.	.	.	.	24b\JJ	.	.
!LO:LB:g=original	!	!	!	!	!	!	!	!	!	!
=114	=114	=114	=114	=114	=114	=114	=114	=114	=114	=114
8A\L	.	8e\L	.	8a/L	.	8cc#\L	.	8a\L	.	.
8F#\	.	8f#\	.	8a/	.	8dd\	.	8dd\	.	.
8Gn\J	.	8gn\J	.	8b/J	.	[>8b\J	.	8a\J	.	.
!	!	!	!	!	!	!	!	!LO:LB:g=original	!	!
=115	=115	=115	=115	=115	=115	=115	=115	=115	=115	=115
!LO:TX:t=P:problem:mixed beam	!	!LO:TX:t=P:problem:mixed beam	!	!	!	!	!	!	!	!
8E\L	.	8e\L	.	16b/LL	.	16b\LL]	.	16b\LL	.	-ven-
!	!	!	!	!	!	!	!	!LO:SIC:s=16ggn	!	!
.	.	.	.	16b/	.	16ggn\	.	16gg#\JJ	.	.
8A\	.	8a\	.	16a/	.	16ff#\	.	16ff#\LL	.	-di-
.	.	.	.	16gn/	.	16ee\	.	16ee\JJ	.	.
8AA/J	.	8A/J	.	16f#/	.	16dd\	.	16dd\LL	-ci-	-che-
.	.	.	.	16e/JJ	.	16cc#\JJ	.	16cc#\JJ	.	.
=116	=116	=116	=116	=116	=116	=116	=116	=116	=116	=116
.	.	.	.	8qqe/	.	8qqcc#/	.	8qqcc#/	.	.
4D/	.	4.d\	.	4.d/	.	4.dd\	.	4.dd\	-mus	-ro
8r	.	.	.	.	.	.	.	.	.	.
=117	=117	=117	=117	=117	=117	=117	=117	=117	=117	=117
!	!	!	!	!LO:TX:t=P:problem:mixed beam	!	!LO:TX:t=P:problem:mixed beam	!LO:DY:a	!	!	!
8r	.	8r	.	8ff#\L	.	8ff#\L	.	8r	.	.
!	!	!	!	!	!	!	!LO:DY:a:rj	!	!	!
!	!	!	!	!	!	!	!LO:HP:a:i:t=piano	!	!	!
8D\L	.	8d\L	.	24f#/L	.	24f#/L	p	8f#/	te	A
.	.	.	.	24g#/	.	24g#/	.	.	.	.
.	.	.	.	24a/J	.	24a/J	.	.	.	.
8E\J	.	8e\J	.	8g#/J	.	8g#/J	.	8g#X/	e-	il
=118	=118	=118	=118	=118	=118	=118	=118	=118	=118	=118
!	!	!	!	!LO:TX:t=P:problem:mixed beam	!	!LO:TX:t=P:problem:mixed beam	!	!	!	!
8r	.	8r	.	8ff#\L	.	8ff#\L	.	8.g#\L	-xo-	pian-
8E\L	.	8e\L	.	16g#/L	.	16g#/L	.	.	.	.
.	.	.	.	16b/J	.	16b/J	.	32a#X\LL	.	.
.	.	.	.	.	.	.	.	32b\JJJ	.	.
8F#\J	.	8f#\J	.	8a#X/J	.	8a#X/J	.	8a#\	-ra-	-to
!	!	!	!	!	!	!LO:LB:g=original	!	!	!	!
=119	=119	=119	=119	=119	=119	=119	=119	=119	=119	=119
!	!	!	!	!	!	!LO:TX:t=P:problem:mixed beam	!	!	!	!
8r	.	8r	.	8ff#\L	.	8ff#\L	.	8.a#X\L	.	da
!	!	!	!	!	!	!LO:TUP:b:problem:klamra łukowa	!	!	!	!
8F#\L	.	8f#\L	.	24a#X\L	.	24a#X/L	.	.	.	.
.	.	.	.	24b\	.	24b/	.	.	.	.
.	.	.	.	.	.	.	.	32b\LL	.	.
.	.	.	.	24cc#\JJ	.	24cc#/J	.	.	.	.
.	.	.	.	.	.	.	.	32cc#\JJJ	.	.
!	!	!	!	!LO:LB:g=original	!	!	!	!	!	!
8G#X\J	.	8g#\J	.	8b/	.	8b/J	.	8b\	.	uvi
!	!	!LO:LB:g=original	!	!	!	!	!	!	!	!
=120	=120	=120	=120	=120	=120	=120	=120	=120	=120	=120
8r	.	8r	.	8ff#\L	.	8ff#\L	.	8.b\L	.	span-
!	!	!	!	!	!	!LO:TUP:a:problem:klamra łukowa	!	!	!	!
8G#\L	.	8g#\L	.	24b\L	.	24b\L	.	.	.	.
.	.	.	.	24cc#\	.	24cc#\	.	.	.	.
.	.	.	.	.	.	.	.	32cc#\LL	.	.
.	.	.	.	24dd\J	.	24dd\J	.	.	.	.
.	.	.	.	.	.	.	.	32dd\JJJ	.	.
8A#X\J	.	8a#X\J	.	8cc#\J	.	8cc#\J	.	8cc#\	.	-to
=121	=121	=121	=121	=121	=121	=121	=121	=121	=121	=121
8r	.	8r	.	8ff#\L	.	8ff#\L	.	8.cc#\L	.	sal-
!	!	!	!	!LO:TUP:a:problem:klamra łukowa	!	!	!	!	!	!
!	!	!	!	!	!	!LO:TUP:a:problem:klamra łukowa	!	!	!	!
8A#X\L	.	8a#X\L	.	24cc#\L	.	24cc#\L	.	.	.	.
.	.	.	.	24dd\	.	24dd\	.	.	.	.
.	.	.	.	.	.	.	.	32dd\LL	.	.
.	.	.	.	24ee\J	.	24ee\J	.	.	.	.
.	.	.	.	.	.	.	.	32ee\JJJ	.	.
8B\J	.	8b\J	.	8dd\J	.	8dd\J	.	8dd\	.	-vi-
!	!	!	!	!	!	!	!	!LO:LB:g=original	!	!
=122	=122	=122	=122	=122	=122	=122	=122	=122	=122	=122
!LO:TX:a:t=P:problem:brak taktu w źródle	!	!	!	!LO:TX:a:t=P:problem:nadmiarowy takt	!	!LO:TX:a:t=P:problem:brak taktu w źródle	!	!	!	!
4.ryy	.	4.ryy	.	8ff#\L	.	4.ryy	.	4.ryy	.	.
!	!	!	!	!LO:TUP:a:problem:klamra łukowa	!	!	!	!	!	!
.	.	.	.	24cc#\L	.	.	.	.	.	.
.	.	.	.	24dd\	.	.	.	.	.	.
.	.	.	.	24ee\J	.	.	.	.	.	.
.	.	.	.	8dd\J	.	.	.	.	.	.
=123	=123	=123	=123	=123	=123	=123	=123	=123	=123	=123
8E/L	.	8e\L	.	8r	.	8ggn\L	.	8ggn\L	.	-val
8D/	.	8d\	.	8f#/L	.	8ff#\	.	8ff#\J	.	.
8C#/J	.	8c#\J	.	8a#X/J	.	8ee\J	.	8ee\	.	ven-
!LO:LB:g=original	!	!	!	!	!	!	!	!	!	!
=124	=124	=124	=124	=124	=124	=124	=124	=124	=124	=124
!LO:TX:t=P:problem:mixed beam	!	!LO:TX:t=P:problem:mixed beam	!	!	!	!	!	!	!	!
8BB/L	.	8B\L	.	8b/	.	8dd\	.	24dd\LL	.	-di-
.	.	.	.	.	.	.	.	24cc#\	.	.
.	.	.	.	.	.	.	.	24b\JJ	.	.
.	.	.	.	16qqb/	.	8qqcc#/	.	.	.	.
8F#\	.	8f#\	.	4a#X/	.	4cc#\	.	4cc#\	.	-sche-
8FF#/J	.	8F#'</J	.	.	.	.	.	.	.	.
=125	=125	=125	=125	=125	=125	=125	=125	=125	=125	=125
4BB/	.	4B/	.	4b/	.	4b\	.	4b\	-mus	-ro
8r	.	8r	.	8r	.	8r	.	8r	.	.
=126	=126	=126	=126	=126	=126	=126	=126	=126	=126	=126
8D\L	.	8d\L	.	8d/L	.	8d/L	.	8d/	ad	sal-
8E\	.	8e\	.	8e/	.	8e/	.	8e/	fer	.
8F#\J	.	8f#\J	.	8f#/J	.	8f#/J	.	8f#/	o-	-ri-
=127	=127	=127	=127	=127	=127	=127	=127	=127	=127	=127
!	!	!	!	!	!	!	!	!LO:TX:a:t=P:problem:oddech jako rozdzielacz słów na 1 linii	!	!
4.Gn\	.	4.gn\	.	4.gn/	.	4.gn/	.	4.gn,<\	-pem	-val
=128	=128	=128	=128	=128	=128	=128	=128	=128	=128	=128
!LO:TX:t=P:problem:mixed beam	!	!LO:TX:t=P:problem:mixed beam	!	!LO:TX:t=P:problem:mixed beam	!	!LO:TX:t=P:problem:mixed beam	!	!	!	!
8E\L	.	8e\L	.	8bb\L	.	8bb\L	.	8ggn\	po-	ven-
!	!	!	!	!	!	!	!LO:HP:b:i:t=for:	!	!	!
!	!	!	!	!	!	!	!LO:DY:b:rj	!LO:TUP:a:problem:klamra łukowa, kropka zamiast numeru	!	!
8F#\	.	8f#\	.	8ff#\	.	8ff#\	f	24ff#\LL	-ten-	-di-
.	.	.	.	.	.	.	.	24ee\	.	.
.	.	.	.	.	.	.	.	24dd\JJ	.	.
!	!	!	!	!	!	!	!	!LO:TUP:a:problem:klamra łukowa	!	!
8FF#/J	.	8F#/J	.	8f#/J	.	8f#/J	.	24cc#\LL	-ti-	-che-
.	.	.	.	.	.	.	.	24b\	.	.
.	.	.	.	.	.	.	.	24a#X\JJ	.	.
=129	=129	=129	=129	=129	=129	=129	=129	=129	=129	=129
4.BB/	.	4.B/	.	4.b\	.	4.b\	.	4.b\	-bus.	-ro.
=130	=130	=130	=130	=130	=130	=130	=130	=130	=130	=130
!	!	!	!	!	!	!	!	!LO:N:vis=00	!	!
8BB/L	.	8d#X\L	.	16b\LL	.	16b\LL	.	1.r	.	.
.	.	.	.	16bb\JJ	.	16bb\JJ	.	.	.	.
.	.	.	.	16qqbb/	.	16qqbb/	.	.	.	.
8C#/	.	8e\	.	4aa\	.	4aa\	.	.	.	.
8D#X/J	.	8f#\J	.	.	.	.	.	.	.	.
!	!	!	!	!LO:LB:g=original	!	!LO:LB:g=original	!	!	!	!
=131	=131	=131	=131	=131	=131	=131	=131	=131	=131	=131
8E\L	.	8g#X\L	.	16gg#\LL	.	16gg#\LL	.	.	.	.
.	.	.	.	16ff#\J	.	16ff#\J	.	.	.	.
8F#\	.	8a\	.	8ee\	.	8ee\	.	.	.	.
8G#X\J	.	8b\J	.	8dd\J	.	8dd\J	.	.	.	.
!	!	!LO:LB:g=original	!	!	!	!	!	!	!	!
=132	=132	=132	=132	=132	=132	=132	=132	=132	=132	=132
!	!	!LO:TX:t=P:problem:mixed beam	!	!	!	!	!	!	!	!
8A\L	.	8e\L	.	8cc#\L	.	8cc#\L	.	.	.	.
8D\	.	8f#\	.	8b\	.	8b\	.	.	.	.
8D#X\J	.	8F#/J	.	8a\J	.	8a\J	.	.	.	.
=133	=133	=133	=133	=133	=133	=133	=133	=133	=133	=133
8E\L	.	4B/	.	24b/LL	.	24g#/LL	.	.	.	.
.	.	.	.	24cc#/	.	24a/	.	.	.	.
.	.	.	.	24dd/JJ	.	24b/JJ	.	.	.	.
8E\	.	.	.	8e/	.	8e/	.	.	.	.
8Dn\J	.	8r	.	8r	.	8r	.	.	.	.
!LO:LB:g=original	!	!	!	!	!	!	!	!	!	!
=134	=134	=134	=134	=134	=134	=134	=134	=134	=134	=134
!	!	!	!	!	!	!	!	!LO:N:vis=00	!	!
4C#/	.	4a\	.	4ee\	.	4aa\	.	1.r	.	.
8d\	.	8a\	.	8ff#\	.	8ff#\	.	.	.	.
=135	=135	=135	=135	=135	=135	=135	=135	=135	=135	=135
.	.	.	.	8qqee/	.	8qqee/	.	.	.	.
8B\L	.	8a\L	.	4dd\	.	4dd\	.	.	.	.
8E\	.	8g#\	.	.	.	.	.	.	.	.
8A\J	.	8a\J	.	8cc#\	.	8cc#\	.	.	.	.
=136	=136	=136	=136	=136	=136	=136	=136	=136	=136	=136
!LO:TX:t=P:problem:mixed beam	!	!	!	!	!	!	!	!	!	!
8D\L	.	8f#\L	.	8b\	.	24dd\LL	.	.	.	.
.	.	.	.	.	.	24cc#\	.	.	.	.
.	.	.	.	.	.	24b\JJ	.	.	.	.
.	.	.	.	8qqa/	.	8qqcc#/	.	.	.	.
8E\	.	8e\	.	4g#/	.	4bT>\	.	.	.	.
8EE/J	.	8d\J	.	.	.	.	.	.	.	.
=137	=137	=137	=137	=137	=137	=137	=137	=137	=137	=137
4AA/	.	4c#/	.	4a/	.	4a/	.	.	.	.
8r	.	8r	.	8r	.	8r	.	.	.	.
!LO:TX:a:t=Dal Segno:problem:napis na pięciolinii za kreską	!	!	!	!LO:TX:a:t=Da capo:problem:napis na pięciolinii za kreską	!	!	!	!LO:TX:a:t=Dal Segno:problem:napis na pięciolinii za kreską	!	!
!LO:TX:t=P:problem:po napisie dwa znaki segno na pięciolinii	!	!LO:TX:a:t=P:problem:wężowate segno za kreską taktową	!	!	!	!	!	!LO:TX:t=P:problem:po napisie dwa znaki segno na pięciolinii	!	!
==	==	==	==	==	==	==	==	==	==	==
*-	*-	*-	*-	*-	*-	*-	*-	*-	*-	*-
!!!system-decoration: [(s1)][(s2,s3,s4)][(s5)]
!!!RDF**kern: > = above
!!!RDF**kern: < = below
!!!ENC: Marta Chmielewska
!!!END: 2020-06-03
!!!EED: Mateusz Mrugas
!!!EST: 2020-12-07
